public/images/home/hey-mobile.svg

<svg width="327" height="187" viewBox="0 0 327 187" fill="none" xmlns="http://www.w3.org/2000/svg">
<path d="M38.5616 0.442215H53.5578C54.1189 0.442215 54.6034 0.646245 55.0115 1.05431C55.4196 1.46237 55.6236 1.94694 55.6236 2.50802V51.9342C55.6236 52.4953 55.4196 52.9799 55.0115 53.3879C54.6034 53.796 54.1189 54 53.5578 54H38.5616C38.0005 54 37.516 53.796 37.1079 53.3879C36.6998 52.9799 36.4958 52.4953 36.4958 51.9342V35.4078H24.101V51.9342C24.101 52.4953 23.897 52.9799 23.4889 53.3879C23.0809 53.796 22.5963 54 22.0352 54H7.03902C6.47794 54 5.99337 53.8215 5.58531 53.4644C5.17725 53.0564 4.97322 52.5463 4.97322 51.9342V2.50802C4.97322 1.94694 5.17725 1.46237 5.58531 1.05431C5.99337 0.646245 6.47794 0.442215 7.03902 0.442215H22.0352C22.5963 0.442215 23.0809 0.646245 23.4889 1.05431C23.897 1.46237 24.101 1.94694 24.101 2.50802V18.5754H36.4958V2.50802C36.4958 1.94694 36.6998 1.46237 37.1079 1.05431C37.516 0.646245 38.0005 0.442215 38.5616 0.442215ZM82.0193 39.0803H105.585C106.146 39.0803 106.63 39.2844 107.038 39.6924C107.447 40.1005 107.651 40.5851 107.651 41.1461V51.9342C107.651 52.4953 107.447 52.9799 107.038 53.3879C106.63 53.796 106.146 54 105.585 54H65.7225C65.1614 54 64.6768 53.796 64.2687 53.3879C63.8607 52.9799 63.6567 52.4953 63.6567 51.9342V2.50802C63.6567 1.94694 63.8607 1.46237 64.2687 1.05431C64.6768 0.646245 65.1614 0.442215 65.7225 0.442215H104.973C105.534 0.442215 106.018 0.646245 106.426 1.05431C106.834 1.46237 107.038 1.94694 107.038 2.50802V13.2961C107.038 13.8572 106.834 14.3417 106.426 14.7498C106.018 15.1579 105.534 15.3619 104.973 15.3619H82.0193V20.1821H103.289C103.85 20.1821 104.335 20.3861 104.743 20.7942C105.151 21.2022 105.355 21.6868 105.355 22.2479V32.1943C105.355 32.7554 105.151 33.24 104.743 33.648C104.335 34.0561 103.85 34.2601 103.289 34.2601H82.0193V39.0803ZM145.165 54H130.169C129.608 54 129.123 53.796 128.715 53.3879C128.307 52.9799 128.103 52.4953 128.103 51.9342V36.8615L110.888 2.81406C110.786 2.61003 110.735 2.32949 110.735 1.97244C110.735 1.61539 110.888 1.28384 111.194 0.977795C111.551 0.620742 111.959 0.442215 112.418 0.442215H126.802C128.332 0.442215 129.404 1.07981 130.016 2.355L137.667 17.7337L145.318 2.355C145.93 1.07981 147.001 0.442215 148.531 0.442215H162.915C163.375 0.442215 163.757 0.620742 164.063 0.977795C164.42 1.28384 164.599 1.61539 164.599 1.97244C164.599 2.32949 164.548 2.61003 164.446 2.81406L147.231 36.8615V51.9342C147.231 52.4953 147.027 52.9799 146.619 53.3879C146.211 53.796 145.726 54 145.165 54ZM172.987 36.5555H185.611C186.07 36.5555 186.453 36.734 186.759 37.091C187.116 37.3971 187.294 37.7286 187.294 38.0857C187.294 38.3917 187.269 38.6213 187.218 38.7743L179.949 57.2135C179.337 58.8457 178.164 59.6618 176.43 59.6618H168.167C167.708 59.6618 167.3 59.4833 166.942 59.1262C166.636 58.8202 166.483 58.4376 166.483 57.9786V57.8256L169.314 39.5394C169.416 38.7743 169.799 38.0857 170.462 37.4736C171.176 36.8615 172.018 36.5555 172.987 36.5555ZM35.1951 120H20.1989C19.6379 120 19.1533 119.796 18.7452 119.388C18.3372 118.98 18.1331 118.495 18.1331 117.934V102.862L0.918133 68.8141C0.816119 68.61 0.765111 68.3295 0.765111 67.9724C0.765111 67.6154 0.918133 67.2838 1.22418 66.9778C1.58123 66.6207 1.98929 66.4422 2.44836 66.4422H16.8324C18.3627 66.4422 19.4338 67.0798 20.0459 68.355L27.697 83.7337L35.3481 68.355C35.9602 67.0798 37.0314 66.4422 38.5616 66.4422H52.9457C53.4048 66.4422 53.7873 66.6207 54.0934 66.9778C54.4504 67.2838 54.6289 67.6154 54.6289 67.9724C54.6289 68.3295 54.5779 68.61 54.4759 68.8141L37.2609 102.862V117.934C37.2609 118.495 37.0569 118.98 36.6488 119.388C36.2408 119.796 35.7562 120 35.1951 120ZM63.8587 71.3389C68.5514 67.5644 74.7488 65.6771 82.4509 65.6771C90.153 65.6771 96.3249 67.5899 100.967 71.4154C105.659 75.19 108.006 80.5203 108.006 87.4063V99.342C108.006 106.33 105.685 111.66 101.043 115.333C96.4524 118.954 90.255 120.765 82.4509 120.765C74.6468 120.765 68.4239 118.954 63.7822 115.333C59.1915 111.66 56.8962 106.33 56.8962 99.342V87.4063C56.8962 80.4693 59.217 75.1135 63.8587 71.3389ZM78.3193 104.315C79.3394 105.335 80.7166 105.845 82.4509 105.845C84.1851 105.845 85.5623 105.335 86.5825 104.315C87.6026 103.295 88.1127 101.739 88.1127 99.648V86.7942C88.1127 84.7539 87.6026 83.2237 86.5825 82.2035C85.5623 81.1324 84.1851 80.5968 82.4509 80.5968C80.7166 80.5968 79.3394 81.1324 78.3193 82.2035C77.2991 83.2237 76.7891 84.7539 76.7891 86.7942V99.648C76.7891 101.739 77.2991 103.295 78.3193 104.315ZM146.247 66.4422H161.243C161.804 66.4422 162.289 66.6462 162.697 67.0543C163.105 67.4624 163.309 67.9469 163.309 68.508V99.2655C163.309 106.407 161.09 111.788 156.652 115.409C152.215 118.98 146.17 120.765 138.519 120.765C130.919 120.765 124.875 118.98 120.386 115.409C115.948 111.839 113.73 106.458 113.73 99.2655V68.508C113.73 67.9469 113.934 67.4624 114.342 67.0543C114.75 66.6462 115.234 66.4422 115.795 66.4422H130.792C131.353 66.4422 131.837 66.6462 132.245 67.0543C132.653 67.4624 132.857 67.9469 132.857 68.508V99.495C132.857 103.423 134.745 105.386 138.519 105.386C142.294 105.386 144.181 103.423 144.181 99.495V68.508C144.181 67.9469 144.385 67.4624 144.793 67.0543C145.201 66.6462 145.686 66.4422 146.247 66.4422ZM3.59602 149.275C3.59602 144.072 5.73833 139.838 10.023 136.574C14.3586 133.309 20.0204 131.677 27.0084 131.677C34.0474 131.677 39.7858 133.386 44.2234 136.803C48.7121 140.221 50.9564 143.791 50.9564 147.515C50.9564 147.974 50.7779 148.382 50.4208 148.739C50.1148 149.045 49.7577 149.198 49.3497 149.198H34.0474C32.8743 149.198 31.8031 148.765 30.834 147.897C29.8648 147.03 28.5642 146.597 26.9319 146.597C24.4836 146.597 23.2594 147.311 23.2594 148.739C23.2594 149.504 23.846 150.142 25.0191 150.652C26.2433 151.162 28.4876 151.621 31.7521 152.029C39.3522 152.998 44.759 154.783 47.9725 157.385C51.2369 159.935 52.8692 163.837 52.8692 169.091C52.8692 174.294 50.4718 178.553 45.6771 181.868C40.9334 185.133 34.7105 186.765 27.0084 186.765C19.3063 186.765 13.2619 185.184 8.87529 182.021C4.48865 178.859 2.29533 175.008 2.29533 170.468C2.29533 170.009 2.44836 169.627 2.7544 169.321C3.11145 168.964 3.51951 168.785 3.97858 168.785H18.5157C19.5868 168.785 20.76 169.295 22.0352 170.315C23.3614 171.335 25.1722 171.845 27.4675 171.845C31.293 171.845 33.2058 171.131 33.2058 169.703C33.2058 168.785 32.5172 168.096 31.14 167.637C29.7628 167.127 27.1614 166.617 23.3359 166.107C10.176 164.373 3.59602 158.762 3.59602 149.275ZM91.7906 132.442H106.787C107.348 132.442 107.832 132.646 108.241 133.054C108.649 133.462 108.853 133.947 108.853 134.508V183.934C108.853 184.495 108.649 184.98 108.241 185.388C107.832 185.796 107.348 186 106.787 186H91.7906C91.2295 186 90.745 185.796 90.3369 185.388C89.9289 184.98 89.7248 184.495 89.7248 183.934V167.408H77.33V183.934C77.33 184.495 77.126 184.98 76.7179 185.388C76.3099 185.796 75.8253 186 75.2642 186H60.268C59.707 186 59.2224 185.821 58.8143 185.464C58.4063 185.056 58.2022 184.546 58.2022 183.934V134.508C58.2022 133.947 58.4063 133.462 58.8143 133.054C59.2224 132.646 59.707 132.442 60.268 132.442H75.2642C75.8253 132.442 76.3099 132.646 76.7179 133.054C77.126 133.462 77.33 133.947 77.33 134.508V150.575H89.7248V134.508C89.7248 133.947 89.9289 133.462 90.3369 133.054C90.745 132.646 91.2295 132.442 91.7906 132.442ZM122.318 137.339C127.011 133.564 133.208 131.677 140.91 131.677C148.612 131.677 154.784 133.59 159.426 137.415C164.119 141.19 166.465 146.52 166.465 153.406V165.342C166.465 172.33 164.144 177.66 159.502 181.333C154.912 184.954 148.714 186.765 140.91 186.765C133.106 186.765 126.883 184.954 122.241 181.333C117.651 177.66 115.355 172.33 115.355 165.342V153.406C115.355 146.469 117.676 141.113 122.318 137.339ZM136.779 170.315C137.799 171.335 139.176 171.845 140.91 171.845C142.644 171.845 144.022 171.335 145.042 170.315C146.062 169.295 146.572 167.739 146.572 165.648V152.794C146.572 150.754 146.062 149.224 145.042 148.204C144.022 147.132 142.644 146.597 140.91 146.597C139.176 146.597 137.799 147.132 136.779 148.204C135.758 149.224 135.248 150.754 135.248 152.794V165.648C135.248 167.739 135.758 169.295 136.779 170.315ZM204.706 132.442H219.702C220.263 132.442 220.748 132.646 221.156 133.054C221.564 133.462 221.768 133.947 221.768 134.508V165.265C221.768 172.407 219.549 177.788 215.112 181.409C210.674 184.98 204.63 186.765 196.978 186.765C189.378 186.765 183.334 184.98 178.845 181.409C174.408 177.839 172.189 172.458 172.189 165.265V134.508C172.189 133.947 172.393 133.462 172.801 133.054C173.209 132.646 173.694 132.442 174.255 132.442H189.251C189.812 132.442 190.297 132.646 190.705 133.054C191.113 133.462 191.317 133.947 191.317 134.508V165.495C191.317 169.423 193.204 171.386 196.978 171.386C200.753 171.386 202.64 169.423 202.64 165.495V134.508C202.64 133.947 202.844 133.462 203.252 133.054C203.66 132.646 204.145 132.442 204.706 132.442ZM248.456 170.315H269.65C270.211 170.315 270.695 170.519 271.103 170.927C271.511 171.335 271.715 171.82 271.715 172.381V183.934C271.715 184.495 271.511 184.98 271.103 185.388C270.695 185.796 270.211 186 269.65 186H231.088C230.527 186 230.042 185.796 229.634 185.388C229.226 184.98 229.022 184.495 229.022 183.934V134.508C229.022 133.947 229.226 133.462 229.634 133.054C230.042 132.646 230.527 132.442 231.088 132.442H246.39C246.951 132.442 247.436 132.646 247.844 133.054C248.252 133.462 248.456 133.947 248.456 134.508V170.315ZM278.788 132.442H300.823C308.27 132.442 314.391 134.304 319.186 138.028C324.032 141.7 326.454 146.852 326.454 153.483V164.883C326.454 171.82 324.108 177.074 319.415 180.644C314.723 184.215 308.551 186 300.9 186H278.788C278.227 186 277.742 185.796 277.334 185.388C276.926 184.98 276.722 184.495 276.722 183.934V134.508C276.722 133.947 276.926 133.462 277.334 133.054C277.742 132.646 278.227 132.442 278.788 132.442ZM295.85 147.362V171.08H300.823C302.557 171.08 303.935 170.57 304.955 169.55C306.026 168.479 306.562 166.923 306.562 164.883V153.483C306.562 149.402 304.649 147.362 300.823 147.362H295.85Z" fill="#1E1E1E"/>
</svg>

<svg width="327" height="187" fill="none" xmlns="http://www.w3.org/2000/svg"><path d="M38.562.442h14.996c.56 0 1.045.204 1.453.612.409.408.613.893.613 1.454v49.426c0 .561-.204 1.046-.613 1.454a1.986 1.986 0 0 1-1.453.612H38.562a1.986 1.986 0 0 1-1.454-.612 1.986 1.986 0 0 1-.612-1.454V35.408H24.1v16.526c0 .561-.204 1.046-.612 1.454a1.986 1.986 0 0 1-1.454.612H7.04a2.135 2.135 0 0 1-1.454-.536c-.408-.408-.612-.918-.612-1.53V2.508c0-.561.204-1.046.612-1.454A1.986 1.986 0 0 1 7.04.442h14.996c.561 0 1.046.204 1.454.612.408.408.612.893.612 1.454v16.067h12.395V2.508c0-.561.204-1.046.612-1.454a1.986 1.986 0 0 1 1.454-.612ZM82.019 39.08h23.566c.561 0 1.045.204 1.453.612.409.408.613.893.613 1.454v10.788c0 .561-.204 1.046-.613 1.454a1.984 1.984 0 0 1-1.453.612H65.723a1.986 1.986 0 0 1-1.454-.612 1.986 1.986 0 0 1-.612-1.454V2.508c0-.561.204-1.046.612-1.454a1.986 1.986 0 0 1 1.453-.612h39.251c.561 0 1.045.204 1.453.612.408.408.612.893.612 1.454v10.788c0 .561-.204 1.046-.612 1.454a1.984 1.984 0 0 1-1.453.612H82.019v4.82h21.27c.561 0 1.046.204 1.454.612.408.408.612.893.612 1.454v9.946c0 .561-.204 1.046-.612 1.454a1.986 1.986 0 0 1-1.454.612h-21.27v4.82ZM145.165 54h-14.996a1.986 1.986 0 0 1-1.454-.612 1.986 1.986 0 0 1-.612-1.454V36.862L110.888 2.813c-.102-.204-.153-.485-.153-.842s.153-.688.459-.994c.357-.357.765-.536 1.224-.536h14.384c1.53 0 2.602.638 3.214 1.913l7.651 15.379 7.651-15.379c.612-1.275 1.683-1.913 3.213-1.913h14.384c.46 0 .842.179 1.148.536.357.306.536.637.536.994s-.051.638-.153.842l-17.215 34.047v15.073c0 .561-.204 1.046-.612 1.454a1.986 1.986 0 0 1-1.454.612Zm27.822-17.444h12.624c.459 0 .842.178 1.148.535.357.306.535.638.535.995 0 .306-.025.535-.076.688l-7.269 18.44c-.612 1.632-1.785 2.448-3.519 2.448h-8.263c-.459 0-.867-.179-1.225-.536-.306-.306-.459-.688-.459-1.147v-.153l2.831-18.287c.102-.765.485-1.453 1.148-2.065.714-.612 1.556-.918 2.525-.918ZM35.195 120H20.2a1.986 1.986 0 0 1-1.454-.612 1.987 1.987 0 0 1-.612-1.454v-15.072L.918 68.814c-.102-.204-.153-.484-.153-.842 0-.357.153-.688.46-.994.356-.357.764-.536 1.223-.536h14.384c1.53 0 2.602.638 3.214 1.913l7.651 15.379 7.651-15.379c.612-1.275 1.683-1.913 3.214-1.913h14.384c.459 0 .841.179 1.147.536.357.306.536.637.536.994 0 .358-.051.638-.153.842L37.26 102.862v15.072c0 .561-.204 1.046-.612 1.454a1.986 1.986 0 0 1-1.454.612ZM63.86 71.339c4.692-3.775 10.89-5.662 18.592-5.662 7.702 0 13.874 1.913 18.516 5.738 4.692 3.775 7.039 9.105 7.039 15.991v11.936c0 6.988-2.321 12.318-6.963 15.991-4.59 3.621-10.788 5.432-18.592 5.432-7.804 0-14.027-1.811-18.669-5.432-4.59-3.673-6.886-9.003-6.886-15.991V87.406c0-6.937 2.321-12.293 6.963-16.067Zm14.46 32.976c1.02 1.02 2.398 1.53 4.132 1.53 1.734 0 3.111-.51 4.132-1.53 1.02-1.02 1.53-2.576 1.53-4.667V86.794c0-2.04-.51-3.57-1.53-4.59-1.02-1.072-2.398-1.607-4.132-1.607-1.734 0-3.112.535-4.132 1.607-1.02 1.02-1.53 2.55-1.53 4.59v12.854c0 2.091.51 3.647 1.53 4.667Zm67.928-37.873h14.996c.561 0 1.046.204 1.454.612.408.408.612.893.612 1.454v30.758c0 7.141-2.219 12.522-6.657 16.143-4.437 3.571-10.482 5.356-18.133 5.356-7.6 0-13.644-1.785-18.133-5.356-4.438-3.57-6.656-8.951-6.656-16.144V68.508c0-.561.204-1.046.612-1.454a1.984 1.984 0 0 1 1.453-.612h14.997c.561 0 1.045.204 1.453.612.408.408.612.893.612 1.454v30.987c0 3.928 1.888 5.891 5.662 5.891 3.775 0 5.662-1.963 5.662-5.891V68.508c0-.561.204-1.046.612-1.454a1.986 1.986 0 0 1 1.454-.612ZM3.596 149.275c0-5.203 2.142-9.437 6.427-12.701 4.336-3.265 9.997-4.897 16.985-4.897 7.04 0 12.778 1.709 17.215 5.126 4.49 3.418 6.733 6.988 6.733 10.712 0 .459-.178.867-.535 1.224a1.468 1.468 0 0 1-1.071.459H34.047c-1.173 0-2.244-.433-3.213-1.301-.97-.867-2.27-1.3-3.902-1.3-2.448 0-3.673.714-3.673 2.142 0 .765.587 1.403 1.76 1.913 1.224.51 3.469.969 6.733 1.377 7.6.969 13.007 2.754 16.22 5.356 3.265 2.55 4.897 6.452 4.897 11.706 0 5.203-2.397 9.462-7.192 12.777-4.744 3.265-10.966 4.897-18.669 4.897-7.702 0-13.746-1.581-18.133-4.744-4.386-3.162-6.58-7.013-6.58-11.553 0-.459.153-.841.46-1.147.356-.357.765-.536 1.224-.536h14.537c1.07 0 2.244.51 3.52 1.53 1.325 1.02 3.136 1.53 5.431 1.53 3.826 0 5.739-.714 5.739-2.142 0-.918-.689-1.607-2.066-2.066-1.377-.51-3.979-1.02-7.804-1.53-13.16-1.734-19.74-7.345-19.74-16.832Zm88.195-16.833h14.996c.561 0 1.045.204 1.454.612.408.408.612.893.612 1.454v49.426c0 .561-.204 1.046-.612 1.454a1.988 1.988 0 0 1-1.454.612H91.791a1.986 1.986 0 0 1-1.454-.612 1.987 1.987 0 0 1-.612-1.454v-16.526H77.33v16.526c0 .561-.204 1.046-.612 1.454a1.986 1.986 0 0 1-1.454.612H60.268a2.136 2.136 0 0 1-1.454-.536c-.408-.408-.612-.918-.612-1.53v-49.426c0-.561.204-1.046.612-1.454a1.986 1.986 0 0 1 1.454-.612h14.996c.561 0 1.046.204 1.454.612.408.408.612.893.612 1.454v16.067h12.395v-16.067c0-.561.204-1.046.612-1.454a1.986 1.986 0 0 1 1.454-.612Zm30.527 4.897c4.693-3.775 10.89-5.662 18.592-5.662 7.702 0 13.874 1.913 18.516 5.738 4.693 3.775 7.039 9.105 7.039 15.991v11.936c0 6.988-2.321 12.318-6.963 15.991-4.59 3.621-10.788 5.432-18.592 5.432-7.804 0-14.027-1.811-18.669-5.432-4.59-3.673-6.886-9.003-6.886-15.991v-11.936c0-6.937 2.321-12.293 6.963-16.067Zm14.461 32.976c1.02 1.02 2.397 1.53 4.131 1.53 1.734 0 3.112-.51 4.132-1.53 1.02-1.02 1.53-2.576 1.53-4.667v-12.854c0-2.04-.51-3.57-1.53-4.59-1.02-1.072-2.398-1.607-4.132-1.607-1.734 0-3.111.535-4.131 1.607-1.021 1.02-1.531 2.55-1.531 4.59v12.854c0 2.091.51 3.647 1.531 4.667Zm67.927-37.873h14.996c.561 0 1.046.204 1.454.612.408.408.612.893.612 1.454v30.757c0 7.142-2.219 12.523-6.656 16.144-4.438 3.571-10.482 5.356-18.134 5.356-7.6 0-13.644-1.785-18.133-5.356-4.437-3.57-6.656-8.951-6.656-16.144v-30.757c0-.561.204-1.046.612-1.454a1.987 1.987 0 0 1 1.454-.612h14.996c.561 0 1.046.204 1.454.612.408.408.612.893.612 1.454v30.987c0 3.928 1.887 5.891 5.661 5.891 3.775 0 5.662-1.963 5.662-5.891v-30.987c0-.561.204-1.046.612-1.454a1.987 1.987 0 0 1 1.454-.612Zm43.75 37.873h21.194c.561 0 1.045.204 1.453.612.408.408.612.893.612 1.454v11.553c0 .561-.204 1.046-.612 1.454a1.985 1.985 0 0 1-1.453.612h-38.562a1.987 1.987 0 0 1-1.454-.612 1.987 1.987 0 0 1-.612-1.454v-49.426c0-.561.204-1.046.612-1.454a1.987 1.987 0 0 1 1.454-.612h15.302c.561 0 1.046.204 1.454.612.408.408.612.893.612 1.454v35.807Zm30.332-37.873h22.035c7.447 0 13.568 1.862 18.363 5.586 4.846 3.672 7.268 8.824 7.268 15.455v11.4c0 6.937-2.346 12.191-7.039 15.761-4.692 3.571-10.864 5.356-18.515 5.356h-22.112a1.987 1.987 0 0 1-1.454-.612 1.987 1.987 0 0 1-.612-1.454v-49.426c0-.561.204-1.046.612-1.454a1.987 1.987 0 0 1 1.454-.612Zm17.062 14.92v23.718h4.973c1.734 0 3.112-.51 4.132-1.53 1.071-1.071 1.607-2.627 1.607-4.667v-11.4c0-4.081-1.913-6.121-5.739-6.121h-4.973Z" fill="#1E1E1E"/></svg>
